assets/icons/package/deb.svg

<?xml version="1.0" encoding="UTF-8" standalone="no"?>
<svg viewBox="0 0 24 24" height="24" id="svg7384" version="1.1" width="24" sodipodi:docname="deb.svg" inkscape:version="1.1.2 (08b2f3d93c, 2022-04-05)"
   xmlns:inkscape="http://www.inkscape.org/namespaces/inkscape"
   xmlns:sodipodi="http://sodipodi.sourceforge.net/DTD/sodipodi-0.dtd"
   xmlns="http://www.w3.org/2000/svg"
   xmlns:svg="http://www.w3.org/2000/svg"
   xmlns:rdf="http://www.w3.org/1999/02/22-rdf-syntax-ns#"
   xmlns:cc="http://creativecommons.org/ns#"
   xmlns:dc="http://purl.org/dc/elements/1.1/">
   <sodipodi:namedview id="namedview25" pagecolor="#ffffff" bordercolor="#666666" borderopacity="1.0" inkscape:pageshadow="2" inkscape:pageopacity="0.0" inkscape:pagecheckerboard="0" showgrid="false" inkscape:zoom="4" inkscape:cx="17.625" inkscape:cy="20.75" inkscape:window-width="1920" inkscape:window-height="1043" inkscape:window-x="1920" inkscape:window-y="0" inkscape:window-maximized="1" inkscape:current-layer="svg7384" inkscape:snap-page="true">
      <inkscape:grid type="xygrid" id="grid829" />
      <inkscape:grid type="xygrid" id="grid831" dotted="true" spacingx="0.5" spacingy="0.5" empspacing="10" />
   </sodipodi:namedview>
   <metadata id="metadata20854">
      <rdf:RDF>
         <cc:Work rdf:about="">
            <dc:format>image/svg+xml</dc:format>
            <dc:type rdf:resource="http://purl.org/dc/dcmitype/StillImage" />
         </cc:Work>
      </rdf:RDF>
   </metadata>
   <defs id="defs7386">
      <linearGradient id="linearGradient5606" inkscape:swatch="solid">
         <stop id="stop5608" offset="0" style="stop-color:#000000;stop-opacity:1;" />
      </linearGradient>
      <linearGradient id="linearGradient4526" inkscape:swatch="solid">
         <stop id="stop4528" offset="0" style="stop-color:#ffffff;stop-opacity:1;" />
      </linearGradient>
      <linearGradient id="linearGradient3600-4" inkscape:swatch="gradient">
         <stop id="stop3602-7" offset="0" style="stop-color:#f4f4f4;stop-opacity:1" />
         <stop id="stop3604-6" offset="1" style="stop-color:#dbdbdb;stop-opacity:1" />
      </linearGradient>
   </defs>
   <path id="path866" style="color:#000000;fill:#808080;fill-opacity:1;-inkscape-stroke:none" d="m 6.7871094,3 c -0.6769458,0.00559 -1.250602,0.048153 -1.7597656,0.3027344 -0.3394423,0.1697212 -0.6300054,0.4624336 -0.796875,0.8378906 -0.1668698,0.375457 -0.2304688,0.8177089 -0.2304688,1.359375 v 13 c 0,0.541666 0.063599,0.983918 0.2304688,1.359375 0.1668697,0.375457 0.4574327,0.668169 0.796875,0.837891 0.6788847,0.339442 1.4726572,0.302734 2.4726562,0.302734 h 8 c 0.999999,0 1.793771,0.03671 2.472656,-0.302734 0.339443,-0.169722 0.630005,-0.462434 0.796875,-0.837891 0.16687,-0.375457 0.230469,-0.817709 0.230469,-1.359375 v -13 c 0,-0.5416661 -0.0636,-0.983918 -0.230469,-1.359375 -0.16687,-0.375457 -0.457432,-0.6681694 -0.796875,-0.8378906 -0.678885,-0.3394424 -1.472657,-0.3027344 -2.472656,-0.3027344 h -8 c -0.2499997,0 -0.487242,-0.00186 -0.7128906,0 z m 0.7128906,1 h 8 c 0.999999,0 1.70623,0.036708 2.027344,0.1972656 0.160557,0.080279 0.244995,0.162567 0.328125,0.3496094 0.08313,0.1870424 0.144531,0.4947921 0.144531,0.953125 v 13 c 0,0.458333 -0.0614,0.766083 -0.144531,0.953125 -0.08313,0.187042 -0.167568,0.269331 -0.328125,0.349609 -0.321114,0.160557 -1.027345,0.197266 -2.027344,0.197266 h -8 c -0.999999,0 -1.7062292,-0.03671 -2.0273438,-0.197266 -0.1605571,-0.08028 -0.2449948,-0.162567 -0.328125,-0.349609 -0.08313,-0.187042 -0.1445312,-0.494792 -0.1445312,-0.953125 v -13 c 0,-0.4583329 0.061401,-0.7660826 0.1445312,-0.953125 0.08313,-0.1870424 0.1675679,-0.2693308 0.328125,-0.3496094 0.3211143,-0.1605571 1.0273448,-0.1972656 2.0273438,-0.1972656 z" sodipodi:nodetypes="csssssssssssssssscccssssssccssssssc" />
   <path id="path9" style="fill:#808080;stroke-width:0.133073" d="M 12.185547 5.8300781 C 12.0041 5.8449815 11.822778 5.8522818 11.644531 5.875 L 11.726562 5.8867188 C 11.856638 5.8391493 12.043987 5.8582281 12.185547 5.8300781 z M 11.386719 5.9121094 C 11.08451 5.9304734 10.665442 6.0887651 10.794922 5.9453125 C 10.301886 6.1654154 9.4269859 6.4747148 8.9355469 6.9355469 L 8.9199219 6.8320312 C 8.6947622 7.1023027 7.9372353 7.6398529 7.8769531 7.9902344 L 7.8164062 8.0039062 C 7.699435 8.2023182 7.624135 8.4268583 7.53125 8.6308594 C 7.4163747 8.8267762 7.3461959 8.7871225 7.328125 8.7714844 C 7.0267144 9.3825561 6.8772608 9.8970498 6.7480469 10.318359 C 6.8401339 10.45609 6.7504223 11.147721 6.7851562 11.701172 C 6.6339851 14.435026 8.7042878 17.088504 10.966797 17.701172 C 11.298415 17.820006 11.789538 17.816415 12.208984 17.828125 C 11.714218 17.686536 11.652179 17.752055 11.169922 17.583984 C 10.822202 17.420038 10.744498 17.233379 10.498047 17.019531 L 10.595703 17.191406 C 10.112647 17.020407 10.314973 16.979892 9.921875 16.855469 L 10.027344 16.720703 C 9.8707164 16.708723 9.6115443 16.456266 9.5410156 16.316406 L 9.3691406 16.324219 C 9.1634096 16.070582 9.0543825 15.88613 9.0625 15.744141 L 9.0078125 15.84375 C 8.9451345 15.736094 8.249013 14.891209 8.609375 15.087891 C 8.542439 15.026941 8.4538999 14.988029 8.3574219 14.8125 L 8.4316406 14.728516 C 8.2585125 14.505353 8.1118687 14.220281 8.1230469 14.125 C 8.2155329 14.249823 8.2801411 14.273498 8.34375 14.294922 C 7.9058065 13.208514 7.8803131 14.233587 7.5488281 13.1875 L 7.6191406 13.183594 C 7.5655116 13.102284 7.5333496 13.014098 7.4902344 12.927734 L 7.5195312 12.623047 C 7.2044141 12.258959 7.4328716 11.07389 7.4785156 10.423828 C 7.5097876 10.159545 7.7399599 9.8769504 7.9160156 9.4355469 L 7.8105469 9.4179688 C 8.0157456 9.0602683 8.9800765 7.981751 9.4277344 8.0371094 C 9.6445105 7.7648419 9.3862 8.0352009 9.34375 7.9667969 C 9.8200187 7.4740272 9.969644 7.6180566 10.291016 7.5292969 C 10.637405 7.3236989 9.9920386 7.6099279 10.15625 7.4511719 C 10.755479 7.2982709 10.581743 7.1029722 11.363281 7.0253906 C 11.445781 7.0722326 11.172182 7.0993421 11.103516 7.1601562 C 11.60254 6.915834 12.682673 6.9708889 13.384766 7.2949219 C 14.198775 7.675644 15.114195 8.8010447 15.150391 9.859375 L 15.191406 9.8691406 C 15.170646 10.289918 15.255272 10.77775 15.107422 11.224609 L 15.207031 11.011719 C 15.219011 11.333223 15.113254 11.489365 15.017578 11.765625 L 14.845703 11.851562 C 14.705045 12.124894 14.860496 12.024878 14.759766 12.242188 C 14.539929 12.437406 14.094093 12.852566 13.951172 12.890625 C 13.84671 12.888325 14.020079 12.767944 14.042969 12.720703 C 13.749011 12.922442 13.807076 13.023658 13.357422 13.146484 L 13.345703 13.117188 C 12.237204 13.638834 10.69657 12.605356 10.716797 11.195312 C 10.705087 11.284743 10.682683 11.262899 10.658203 11.298828 C 10.600983 10.573446 10.99461 9.8448256 11.65625 9.546875 C 12.303384 9.2267011 13.062164 9.356708 13.525391 9.7890625 C 13.270955 9.4555813 12.762402 9.1020296 12.162109 9.1347656 C 11.573793 9.1443456 11.023485 9.5197753 10.839844 9.9257812 C 10.538566 10.115411 10.504257 10.656586 10.373047 10.755859 C 10.196193 12.054652 10.705023 12.615215 11.566406 13.275391 C 11.634007 13.321036 11.643795 13.347507 11.638672 13.371094 C 12.654819 13.750486 13.704903 13.657747 14.583984 12.953125 C 14.807813 12.778799 15.052385 12.482509 15.123047 12.478516 C 15.016722 12.63847 15.140304 12.556079 15.058594 12.697266 C 15.281092 12.337836 14.961835 12.550445 15.289062 12.076172 L 15.410156 12.242188 C 15.364906 11.943572 15.780598 11.581253 15.738281 11.109375 C 15.833691 10.965124 15.845267 11.265772 15.744141 11.597656 C 15.884533 11.229443 15.780476 11.169173 15.816406 10.865234 C 15.855126 10.967434 15.907375 11.077625 15.933594 11.185547 C 15.842044 10.829577 16.026222 10.585835 16.072266 10.378906 C 16.026756 10.358946 15.932246 10.535479 15.910156 10.115234 C 15.913456 9.9326581 15.960286 10.019588 15.978516 9.9746094 C 15.942856 9.9539834 15.848104 9.8133303 15.791016 9.5449219 C 15.832136 9.4817119 15.902561 9.7095679 15.958984 9.71875 C 15.922654 9.5054338 15.860083 9.3415474 15.857422 9.1777344 C 15.692411 8.8330751 15.799621 9.2252703 15.666016 9.03125 C 15.49036 8.4837873 15.810207 8.9028774 15.832031 8.6542969 C 16.097911 9.0395435 16.250448 9.6373827 16.320312 9.8847656 C 16.267083 9.5830889 16.181166 9.2905929 16.076172 9.0078125 C 16.157212 9.0420125 15.946101 8.3887135 16.181641 8.8222656 C 15.930266 7.898073 15.105507 7.0339807 14.347656 6.6289062 C 14.440146 6.7136743 14.55741 6.8191703 14.515625 6.8359375 C 14.138496 6.6117093 14.204419 6.5947481 14.150391 6.5 C 13.843658 6.3750444 13.824031 6.5099808 13.621094 6.5 C 13.042226 6.1928673 12.931129 6.2253607 12.398438 6.0332031 L 12.421875 6.1464844 C 12.038491 6.0187342 11.974803 6.1943903 11.560547 6.1464844 C 11.535397 6.1269224 11.694074 6.0754036 11.824219 6.0566406 C 11.453478 6.1056116 11.470179 5.9836825 11.107422 6.0703125 C 11.196712 6.0076355 11.291439 5.9653386 11.386719 5.9121094 z M 11.824219 6.0566406 L 11.892578 6.0507812 L 11.898438 6.0410156 L 11.824219 6.0566406 z M 11.898438 6.0410156 C 12.015009 6.0153326 12.042006 5.9925349 11.6875 5.9824219 C 11.793692 6.0013179 11.916137 6.0155986 11.898438 6.0410156 z M 11.638672 13.371094 C 11.633549 13.394681 11.613997 13.414487 11.623047 13.449219 C 11.33694 13.315347 11.074953 13.114837 10.859375 12.867188 C 10.973818 13.03446 11.096305 13.196468 11.255859 13.324219 C 10.985854 13.233059 10.626479 12.669372 10.521484 12.646484 C 10.986575 13.479255 12.407534 14.108399 13.152344 13.796875 C 12.807685 13.809645 12.369398 13.803257 11.982422 13.660156 C 11.819407 13.576456 11.59915 13.403431 11.638672 13.371094 z M 7.0058594 8.3964844 C 7.0057765 8.4017632 7.0071394 8.4062015 7.0078125 8.4101562 C 7.0074605 8.4057636 7.0063438 8.4009631 7.0058594 8.3964844 z M 7.0078125 8.4160156 C 7.019269 8.5840141 6.9370311 8.6880083 6.9335938 8.6992188 C 6.9413301 8.6949722 6.9761286 8.6646031 7.0605469 8.6054688 C 7.1965309 8.2993174 7.0278807 8.4890392 7.0078125 8.4160156 z M 6.7851562 9.3066406 C 6.6130927 9.5267435 6.705598 9.5749022 6.6875 9.7246094 C 6.749911 9.5333834 6.7613353 9.4174905 6.7851562 9.3066406 z M 13.871094 10.636719 C 13.846493 10.637351 13.814733 10.699378 13.798828 10.767578 C 13.835828 10.787008 13.866544 11.021204 13.902344 10.876953 C 13.914454 10.697903 13.895695 10.636087 13.871094 10.636719 z M 16.046875 11.240234 L 16.017578 11.314453 C 15.964088 11.694776 15.847175 12.070871 15.669922 12.419922 C 15.865806 12.051708 15.993247 11.648369 16.046875 11.240234 z M 13.736328 11.408203 C 13.705224 11.525986 13.639927 11.630258 13.578125 11.740234 C 13.206452 11.974309 13.543261 11.600973 13.578125 11.458984 C 13.17864 11.9624 13.522453 11.761686 13.507812 11.902344 C 13.619219 11.749018 13.70131 11.580863 13.736328 11.408203 z M 12.931641 12.142578 C 12.770223 12.182098 12.607215 12.182999 12.441406 12.167969 C 12.242595 12.170669 12.478652 12.270492 12.738281 12.310547 C 12.810271 12.254387 12.873621 12.197671 12.931641 12.142578 z M 10.423828 12.167969 C 10.467748 12.32912 10.557188 12.468317 10.640625 12.609375 L 10.580078 12.427734 C 10.510878 12.351084 10.469872 12.259523 10.423828 12.167969 z M 10.269531 12.441406 L 10.242188 12.580078 C 10.372998 12.75773 10.475837 12.949495 10.642578 13.087891 C 10.522546 12.853816 10.433744 12.758386 10.269531 12.441406 z " />
</svg>

<svg height="24" width="24" xmlns="http://www.w3.org/2000/svg"><path style="color:#000;fill:gray;fill-opacity:1;-inkscape-stroke:none" d="M6.787 3c-.677.006-1.25.048-1.76.303-.34.17-.63.462-.797.838C4.064 4.516 4 4.958 4 5.5v13c0 .542.064.984.23 1.36.167.375.458.668.797.837.68.34 1.473.303 2.473.303h8c1 0 1.794.037 2.473-.303.34-.17.63-.462.797-.838.166-.375.23-.817.23-1.359v-13c0-.542-.064-.984-.23-1.36a1.72 1.72 0 0 0-.797-.837C17.293 2.963 16.5 3 15.5 3h-8c-.25 0-.487-.002-.713 0zM7.5 4h8c1 0 1.706.037 2.027.197.16.08.245.163.328.35.084.187.145.495.145.953v13c0 .458-.061.766-.145.953a.615.615 0 0 1-.328.35c-.32.16-1.027.197-2.027.197h-8c-1 0-1.706-.037-2.027-.197a.615.615 0 0 1-.328-.35C5.06 19.266 5 18.958 5 18.5v-13c0-.458.061-.766.145-.953a.615.615 0 0 1 .328-.35C5.793 4.037 6.5 4 7.5 4z"/><path style="fill:gray;stroke-width:.133073" d="M12.186 5.83c-.182.015-.363.022-.541.045l.082.012c.13-.048.317-.029.459-.057zm-.8.082c-.301.018-.72.177-.591.033-.493.22-1.368.53-1.86.99l-.015-.103c-.225.27-.983.808-1.043 1.158l-.06.014c-.118.198-.193.423-.286.627-.115.196-.185.156-.203.14-.301.612-.45 1.126-.58 1.547.092.138.002.83.037 1.383-.151 2.734 1.92 5.388 4.182 6 .331.119.823.115 1.242.127-.495-.141-.557-.076-1.04-.244-.347-.164-.425-.35-.671-.564l.098.171c-.483-.17-.281-.211-.674-.336l.105-.134c-.156-.012-.415-.265-.486-.405l-.172.008c-.206-.253-.315-.438-.306-.58l-.055.1c-.063-.108-.759-.953-.399-.756-.067-.061-.155-.1-.252-.275l.075-.084c-.173-.224-.32-.509-.309-.604.093.125.157.148.22.17-.437-1.086-.463-.061-.794-1.107l.07-.004c-.053-.082-.086-.17-.129-.256l.03-.305c-.316-.364-.087-1.55-.041-2.2.03-.263.261-.546.437-.987l-.105-.018c.205-.358 1.17-1.436 1.617-1.38.217-.273-.042-.003-.084-.071.476-.493.626-.349.947-.438.346-.205-.299.08-.135-.078.6-.153.426-.348 1.207-.426.083.047-.19.074-.26.135.5-.244 1.58-.19 2.282.135.814.38 1.73 1.506 1.765 2.564l.041.01c-.02.42.064.909-.084 1.356l.1-.213c.012.321-.094.477-.19.754l-.171.086c-.141.273.014.173-.086.39-.22.195-.666.61-.809.649-.104-.003.07-.123.092-.17-.294.201-.236.303-.686.425l-.011-.029c-1.109.522-2.65-.512-2.63-1.922-.01.09-.033.068-.058.104-.057-.726.337-1.454.998-1.752.647-.32 1.406-.19 1.87.242-.255-.333-.764-.687-1.364-.654-.588.01-1.139.385-1.322.79-.301.19-.336.732-.467.83-.177 1.3.332 1.86 1.193 2.52.068.046.078.073.073.096 1.016.38 2.066.287 2.945-.418.224-.174.468-.47.539-.474-.106.16.017.077-.064.218.222-.36-.097-.147.23-.62l.121.165c-.045-.298.37-.66.328-1.133.096-.144.107.157.006.489.14-.369.036-.429.072-.733.04.102.091.213.118.32-.092-.355.092-.6.138-.806-.045-.02-.14.156-.162-.264.003-.182.05-.095.069-.14-.036-.021-.13-.162-.188-.43.041-.063.112.165.168.174-.036-.214-.099-.377-.102-.541-.165-.345-.057.047-.191-.147-.176-.547.144-.128.166-.377.266.386.418.983.488 1.23a5.038 5.038 0 0 0-.244-.876c.081.034-.13-.62.106-.186-.252-.924-1.076-1.788-1.834-2.193.092.085.21.19.168.207-.378-.224-.312-.241-.366-.336-.306-.125-.326.01-.529 0-.579-.307-.69-.275-1.223-.467l.024.113c-.384-.127-.447.048-.861 0-.026-.02.133-.07.263-.09-.37.05-.354-.072-.717.014.09-.062.184-.105.28-.158zm.438.145.069-.006.005-.01-.074.016zm.074-.016c.117-.026.144-.048-.21-.059.106.02.228.034.21.059zm-.26 7.33c-.004.024-.024.043-.015.078a2.331 2.331 0 0 1-.764-.582c.115.167.237.33.397.457-.27-.09-.63-.655-.735-.678.466.833 1.887 1.462 2.631 1.15-.344.014-.783.007-1.17-.136-.163-.084-.383-.257-.343-.289zM7.007 8.396l.002.014-.002-.014zm.002.02c.011.168-.071.272-.074.283.007-.004.042-.034.127-.094.136-.306-.033-.116-.053-.189zm-.223.89c-.172.22-.08.269-.098.419.063-.192.074-.308.098-.418zm7.086 1.33c-.025.001-.056.063-.072.132.037.019.068.253.103.109.012-.18-.006-.24-.03-.24zm2.176.604-.03.074c-.053.38-.17.757-.347 1.106a3.49 3.49 0 0 0 .377-1.18zm-2.31.168c-.032.118-.097.222-.159.332-.372.234-.035-.139 0-.281-.4.503-.056.303-.07.443a1.29 1.29 0 0 0 .228-.494zm-.805.735c-.162.04-.325.04-.49.025-.2.003.037.102.296.143.072-.057.136-.113.194-.168zm-2.508.025c.044.161.133.3.217.441l-.06-.181c-.07-.077-.111-.168-.157-.26zm-.154.273-.028.14c.131.177.234.368.4.507-.12-.234-.208-.33-.372-.647z"/></svg>
